public/images/secure.svg

<svg width="36" height="42" viewBox="0 0 36 42" fill="none" xmlns="http://www.w3.org/2000/svg">
<path fill-rule="evenodd" clip-rule="evenodd" d="M11.9519 18.2684H24.0485V28.5485H11.9519V18.2684ZM13.756 20.0725H22.2444V26.7443H13.756V20.0725Z" fill="black"/>
<path d="M15.5726 18.1305V19.0326H13.7685V15.7622C13.7685 14.6392 14.2141 13.5629 15.0065 12.7686C15.8008 11.9762 16.8789 11.5288 18.0001 11.5288C19.1214 11.5288 20.1995 11.9762 20.9937 12.7686C21.7862 13.5629 22.2318 14.6392 22.2318 15.7622V19.0326H20.4277V15.7622C20.4277 15.119 20.1725 14.499 19.7179 14.0444C19.2615 13.5898 18.6434 13.3328 18.0001 13.3328C17.3568 13.3328 16.7387 13.5898 16.2823 14.0444C15.8276 14.499 15.5725 15.1189 15.5725 15.7622L15.5726 18.1305Z" fill="black"/>
<path d="M17.1932 1.95489L16.6451 1.23793L18.0772 0.141846L18.6253 0.857008C19.0709 1.43739 19.5399 1.99804 20.0358 2.53527C20.5515 3.09771 21.087 3.63854 21.6458 4.15604C22.2262 4.6969 22.8246 5.21799 23.4409 5.71751C24.0823 6.2368 24.7382 6.73631 25.4102 7.21609C26.1056 7.71381 26.8154 8.1918 27.5359 8.65001C28.2816 9.12436 29.0363 9.58256 29.8054 10.021C30.5942 10.4721 31.3938 10.9087 32.2006 11.3255C33.2051 11.8448 34.2221 12.3426 35.2481 12.8152C35.2247 13.6525 35.1708 14.4863 35.0846 15.32C35.0163 15.9813 34.9301 16.6407 34.8276 17.2966C34.6102 18.682 34.3227 20.0548 33.9669 21.4114C33.5986 22.8291 33.1566 24.2253 32.6444 25.5964C32.1269 26.9925 31.5304 28.3546 30.8566 29.6824C30.5205 30.3437 30.163 30.9942 29.7856 31.6321C29.4119 32.2664 29.0148 32.8863 28.5961 33.4918C28.181 34.0902 27.7444 34.6742 27.2844 35.2384C26.8298 35.7954 26.35 36.3327 25.8487 36.8484C25.351 37.3587 24.8317 37.8421 24.2872 38.3003C23.7481 38.7549 23.1839 39.1771 22.5981 39.5671C22.0142 39.957 21.4068 40.3092 20.7815 40.6254C20.1508 40.9417 19.5021 41.2166 18.8355 41.4466L17.9837 41.7413L17.3944 40.0361L18.2461 39.7414C18.8355 39.5384 19.4123 39.294 19.9711 39.0137C20.5318 38.7316 21.0744 38.4153 21.5973 38.0685C22.1274 37.7127 22.6377 37.33 23.1264 36.9203C23.6242 36.5016 24.1021 36.0578 24.555 35.5906C25.0203 35.1127 25.4642 34.6149 25.8846 34.0974C26.3159 33.571 26.7238 33.0265 27.1119 32.4659C27.5072 31.8962 27.881 31.3105 28.2332 30.7139C28.5925 30.1084 28.9303 29.4921 29.2484 28.8649C29.8899 27.5999 30.4613 26.299 30.9554 24.9675C31.446 23.6522 31.8682 22.3135 32.2222 20.9568C32.5618 19.6577 32.8367 18.3424 33.0452 17.0163C33.144 16.391 33.2249 15.7639 33.2896 15.1332C33.3309 14.7342 33.365 14.3353 33.3902 13.9346C32.7127 13.6094 32.0407 13.2734 31.3723 12.9266C30.5421 12.4989 29.7192 12.0515 28.9088 11.5861C28.1163 11.1333 27.3365 10.6625 26.5675 10.172C25.8182 9.69577 25.0832 9.19984 24.3609 8.68414C23.6601 8.18283 22.9755 7.6617 22.3052 7.11908C21.6566 6.5944 21.0277 6.04457 20.4167 5.47674C19.8237 4.9269 19.2542 4.3519 18.7079 3.75712C18.1761 3.17854 17.6711 2.57658 17.1931 1.95484L17.1932 1.95489Z" fill="black"/>
<path d="M17.7539 39.7413L18.6056 40.036L18.0163 41.7412L17.1645 41.4465C16.4979 41.2165 15.8492 40.9416 15.2185 40.6253C14.5932 40.3091 13.9858 39.9569 13.4019 39.5669C12.8161 39.177 12.2519 38.7548 11.7128 38.3001C11.1683 37.8419 10.6491 37.3586 10.1513 36.8483C9.65002 36.3326 9.17024 35.7953 8.71563 35.2383C8.25563 34.6741 7.81899 34.0901 7.40389 33.4917C6.98522 32.8862 6.58812 32.2662 6.21438 31.6319C5.83703 30.9941 5.47943 30.3436 5.14345 29.6823C4.46964 28.3544 3.87307 26.9924 3.35557 25.5962C2.84345 24.2252 2.40143 22.8291 2.03307 21.4113C1.67728 20.0547 1.3898 18.6818 1.17236 17.2965C1.06994 16.6406 0.983686 15.9811 0.915408 15.3199C0.829158 14.4861 0.775251 13.6524 0.751892 12.815C1.78151 12.3407 2.80032 11.8429 3.81016 11.3236C4.62413 10.905 5.43092 10.4701 6.22695 10.0191C7.005 9.57888 7.77048 9.12249 8.52516 8.64809C9.2583 8.18809 9.97885 7.70831 10.6868 7.21238C11.3678 6.73081 12.0362 6.23129 12.6867 5.712C13.3139 5.21428 13.923 4.69319 14.5124 4.15232C15.0766 3.63482 15.6192 3.09396 16.1404 2.53156C16.6381 1.99608 17.1107 1.43727 17.5545 0.856885L18.1043 0.141724L19.5347 1.23961L18.9866 1.95477C18.5068 2.5783 17.9984 3.18205 17.4629 3.76063C16.9094 4.35721 16.3309 4.93221 15.7325 5.48205C15.1107 6.05166 14.4711 6.59791 13.8116 7.12259C13.1306 7.66525 12.4352 8.18634 11.7236 8.68765C10.9905 9.20156 10.2448 9.69748 9.48472 10.1755C8.70667 10.6642 7.91602 11.135 7.11645 11.5896C6.29889 12.0514 5.47053 12.4988 4.63319 12.9283C3.96297 13.2733 3.28911 13.6093 2.60992 13.9345C2.63508 14.3352 2.66922 14.7342 2.71055 15.1331C2.77523 15.7638 2.8561 16.3909 2.95492 17.0162C3.16336 18.3423 3.43829 19.6576 3.77791 20.9568C4.13189 22.3134 4.55416 23.6521 5.0447 24.9674C5.53884 26.2989 6.11025 27.5999 6.75172 28.8649C7.06977 29.492 7.40759 30.1083 7.76694 30.7138C8.11912 31.3104 8.49287 31.8962 8.88819 32.4658C9.27631 33.0264 9.68422 33.5708 10.1155 34.0974C10.5359 34.6149 10.9798 35.1126 11.4451 35.5906C11.898 36.0577 12.3759 36.5016 12.8737 36.9202C13.3624 37.3299 13.8727 37.7127 14.4028 38.0684C14.9257 38.4152 15.4684 38.7315 16.029 39.0136C16.5878 39.2939 17.1646 39.5383 17.754 39.7413L17.7539 39.7413Z" fill="black"/>
</svg>

<svg width="36" height="42" fill="none" xmlns="http://www.w3.org/2000/svg"><path fill-rule="evenodd" clip-rule="evenodd" d="M11.952 18.268h12.097v10.28H11.952v-10.28zm1.804 1.805h8.488v6.671h-8.488v-6.671z" fill="#000"/><path d="M15.573 18.13v.903h-1.805v-3.27c0-1.124.446-2.2 1.239-2.994A4.243 4.243 0 0118 11.529c1.121 0 2.2.447 2.994 1.24a4.238 4.238 0 011.238 2.993v3.27h-1.804v-3.27c0-.643-.256-1.263-.71-1.718A2.437 2.437 0 0018 13.333a2.44 2.44 0 00-1.718.711 2.431 2.431 0 00-.71 1.718v2.369z" fill="#000"/><path d="M17.193 1.955l-.548-.717L18.077.142l.548.715c.446.58.915 1.141 1.41 1.678a27.959 27.959 0 001.61 1.621 35.54 35.54 0 001.796 1.562 40.507 40.507 0 001.97 1.498c.695.498 1.404.976 2.125 1.434.746.474 1.5.933 2.27 1.371a62.25 62.25 0 002.395 1.304 74.633 74.633 0 003.047 1.49 33.402 33.402 0 01-.163 2.505 38.27 38.27 0 01-.257 1.977 41.697 41.697 0 01-.861 4.114 42.48 42.48 0 01-1.323 4.185 38.905 38.905 0 01-1.787 4.086 34.76 34.76 0 01-1.071 1.95 30.677 30.677 0 01-1.19 1.86 28.189 28.189 0 01-1.312 1.746 24.892 24.892 0 01-1.435 1.61c-.498.51-1.017.994-1.562 1.452a18.66 18.66 0 01-1.689 1.267c-.584.39-1.191.742-1.816 1.058a15.83 15.83 0 01-1.947.822l-.851.294-.59-1.705.852-.295a14.09 14.09 0 001.725-.727c.56-.282 1.103-.599 1.626-.946.53-.355 1.04-.738 1.53-1.148.497-.418.975-.862 1.428-1.33.465-.477.91-.975 1.33-1.493.43-.526.839-1.07 1.227-1.631a28.4 28.4 0 001.121-1.752 31.32 31.32 0 001.015-1.85 37.35 37.35 0 001.707-3.896 41.342 41.342 0 002.09-7.952 34.834 34.834 0 00.345-3.081 72.514 72.514 0 01-4.481-2.349 56.15 56.15 0 01-2.341-1.414 49.38 49.38 0 01-2.207-1.488 43.347 43.347 0 01-2.056-1.565 36.491 36.491 0 01-1.888-1.642 30.243 30.243 0 01-1.71-1.72 26.808 26.808 0 01-1.514-1.802z" fill="#000"/><path d="M17.754 39.741l.852.295-.59 1.705-.851-.294a15.928 15.928 0 01-1.946-.822 17.43 17.43 0 01-1.817-1.058c-.586-.39-1.15-.812-1.69-1.267a21.675 21.675 0 01-1.56-1.452 24.9 24.9 0 01-1.436-1.61 28.19 28.19 0 01-1.312-1.746 30.451 30.451 0 01-1.19-1.86 34.677 34.677 0 01-1.07-1.95 38.905 38.905 0 01-1.788-4.086 42.5 42.5 0 01-1.323-4.185 41.718 41.718 0 01-.86-4.114 38.348 38.348 0 01-.258-1.977 33.356 33.356 0 01-.163-2.505 78.58 78.58 0 003.058-1.491c.814-.419 1.62-.854 2.417-1.305a57.77 57.77 0 002.298-1.37c.733-.46 1.454-.94 2.162-1.437a42.99 42.99 0 002-1.5 33.517 33.517 0 001.825-1.56 28.312 28.312 0 001.628-1.62A22.84 22.84 0 0017.555.857l.55-.715 1.43 1.098-.548.715a26.02 26.02 0 01-1.524 1.806 30.657 30.657 0 01-1.73 1.721 36.279 36.279 0 01-1.921 1.64 44.133 44.133 0 01-2.088 1.566 53.746 53.746 0 01-2.24 1.487 62.922 62.922 0 01-4.85 2.753c-.671.345-1.345.681-2.024 1.006a34.793 34.793 0 00.345 3.082 41.36 41.36 0 002.09 7.951 37.367 37.367 0 001.707 3.898c.318.627.656 1.243 1.015 1.849a28.35 28.35 0 001.121 1.752 24.999 24.999 0 002.558 3.125c.452.467.93.91 1.428 1.33.488.409.999.792 1.529 1.147.523.347 1.065.663 1.626.946.559.28 1.136.524 1.725.727z" fill="#000"/></svg>
